static/images/uploads/crew.svg

<?xml version="1.0" encoding="UTF-8"?>
<svg width="54px" height="50px" viewBox="0 0 54 50" version="1.1" xmlns="http://www.w3.org/2000/svg" xmlns:xlink="http://www.w3.org/1999/xlink">
    <!-- Generator: Sketch 50.2 (55047) - http://www.bohemiancoding.com/sketch -->
    <title>crew</title>
    <desc>Created with Sketch.</desc>
    <defs></defs>
    <g id="-" stroke="none" stroke-width="1" fill="none" fill-rule="evenodd">
        <g id="Homepage" transform="translate(-302.000000, -3431.000000)" fill="#413F47">
            <g id="highlights" transform="translate(141.000000, 3199.000000)">
                <g id="Group-34" transform="translate(48.000000, 232.000000)">
                    <g id="crew" transform="translate(113.000000, 0.000000)">
                        <path d="M27,5.39406824 C27.5241085,5.39406824 27.9499895,5.82622939 27.9499895,6.35806643 C27.9499895,6.88990346 27.5241085,7.32206462 27,7.32206462 C26.4758915,7.32206462 26.0500105,6.88990346 26.0500105,6.35806643 C26.0500105,5.82622939 26.4758915,5.39406824 27,5.39406824 M19.1727184,18.0773011 L19.5985995,17.645837 C20.1982675,21.2467152 23.2845313,24 27.0006869,24 C30.7161556,24 33.8024194,21.2467152 34.4027743,17.646534 L34.8272816,18.0773011 C34.961228,18.2132227 35.1370757,18.2815321 35.3129234,18.2815321 C35.488771,18.2815321 35.6646187,18.2132227 35.7985651,18.0773011 C36.067145,17.8047607 36.067145,17.3642352 35.7985651,17.0916948 L34.2434124,15.5136096 C33.9748326,15.2410693 33.5407087,15.2410693 33.2721288,15.5136096 L31.7169761,17.0916948 C31.4483963,17.3642352 31.4483963,17.8047607 31.7169761,18.0773011 C31.9855559,18.3498414 32.4196798,18.3498414 32.6882597,18.0773011 L32.9781335,17.7831527 C32.3963251,20.3217509 30.28684,22.2692643 27.6869049,22.5641097 L27.6869049,11.7684453 L29.8657673,11.7684453 C30.2449388,11.7684453 30.5526723,11.456871 30.5526723,11.0714111 C30.5526723,10.6859513 30.2449388,10.374377 29.8657673,10.374377 L27.6869049,10.374377 L27.6869049,8.59903112 C28.6313992,8.29930645 29.3237993,7.41407312 29.3237993,6.35806643 C29.3237993,5.05809779 28.2810777,4 27,4 C25.7189223,4 24.6762007,5.05809779 24.6762007,6.35806643 C24.6762007,7.41407312 25.3686008,8.29930645 26.3130951,8.59903112 L26.3130951,10.374377 L24.1342327,10.374377 C23.7550612,10.374377 23.4473277,10.6859513 23.4473277,11.0714111 C23.4473277,11.456871 23.7550612,11.7684453 24.1342327,11.7684453 L26.3130951,11.7684453 L26.3130951,22.5648067 C23.7145338,22.2692643 21.6057357,20.322448 21.0232403,17.7852438 L21.3117403,18.0779981 C21.4456868,18.2139198 21.6215345,18.2822291 21.7973821,18.2822291 C21.9732298,18.2822291 22.1490774,18.2139198 22.2830239,18.0779981 C22.5516037,17.8054578 22.5516037,17.3649322 22.2830239,17.0923919 L20.7278712,15.5143066 C20.4592913,15.2417663 20.0251674,15.2417663 19.7565876,15.5143066 L18.2014349,17.0916948 C17.932855,17.3642352 17.932855,17.8047607 18.2014349,18.0773011 C18.4700147,18.3498414 18.9041386,18.3498414 19.1727184,18.0773011" id="Fill-1"></path>
                        <path d="M1.35,14.1077266 C1.35,12.5461683 2.15325,11.1354462 3.34935,10.5980923 L21.047175,2.64283141 C22.966875,1.7802371 24.9831,1.34860325 27,1.34860325 C29.0169,1.34860325 31.033125,1.7802371 32.952825,2.64283141 L50.65065,10.5980923 C51.84675,11.1354462 52.65,12.5461683 52.65,14.1077266 L52.65,21.1916394 C52.65,23.2514957 51.288525,24.9268546 49.615875,24.9268546 L4.384125,24.9268546 C2.7108,24.9268546 1.35,23.2514957 1.35,21.1916394 C1.35,21.1916394 1.35,14.1077266 1.35,14.1077266 Z M45.106875,42.2144298 C40.99005,46.2843127 34.20495,48.6606557 26.94465,48.6525752 C15.0174,48.5892778 5.31495,42.0393521 5.0841,33.9837582 L48.9186,33.9837582 C48.880125,36.9385309 47.566575,39.78287 45.106875,42.2144298 Z M49.488975,32.6370067 L4.511025,32.6370067 L4.511025,26.273606 L49.48965,26.273606 L49.48965,32.6370067 L49.488975,32.6370067 Z M3.161025,26.0682264 L3.161025,33.3103824 C3.161025,33.6463969 3.41145,33.9123803 3.733425,33.9628835 C3.944025,42.7665979 14.256,49.9319891 26.937225,49.9993266 C26.9973,49.9993266 27.05535,50 27.115425,50 C34.6545,50 41.725125,47.453293 46.0566,43.1712967 C48.784275,40.4744269 50.23755,37.2907064 50.26995,33.9622102 C50.590575,33.9096868 50.838975,33.6450502 50.838975,33.3103824 L50.838975,26.0682264 C52.662825,25.4520876 54,23.5013181 54,21.1916394 L54,14.1077266 C54,11.9926535 52.903125,10.1334631 51.204825,9.36985499 L33.507,1.41459407 C29.310525,-0.471531357 24.689475,-0.471531357 20.493,1.41459407 L2.795175,9.36985499 C1.096875,10.1334631 0,11.9933268 0,14.1077266 L0,21.1916394 C0,23.5013181 1.337175,25.4520876 3.161025,26.0682264 Z" id="Fill-3"></path>
                    </g>
                </g>
            </g>
        </g>
    </g>
</svg>

<svg width="54" height="50" xmlns="http://www.w3.org/2000/svg"><g fill="#413F47" fill-rule="evenodd"><path d="M27 5.394c.524 0 .95.432.95.964a.958.958 0 0 1-.95.964.958.958 0 0 1-.95-.964c0-.532.426-.964.95-.964m-7.827 12.683l.426-.431C20.199 21.246 23.285 24 27 24c3.715 0 6.801-2.753 7.402-6.353l.424.43a.68.68 0 0 0 .972 0 .704.704 0 0 0 0-.985l-1.556-1.578a.68.68 0 0 0-.97 0l-1.556 1.578a.704.704 0 0 0 0 .985.68.68 0 0 0 .971 0l.29-.294c-.582 2.539-2.691 4.486-5.291 4.781V11.768h2.179c.379 0 .687-.311.687-.697a.692.692 0 0 0-.687-.697h-2.18V8.6a2.35 2.35 0 0 0 1.638-2.24C29.324 5.058 28.28 4 27 4s-2.324 1.058-2.324 2.358A2.35 2.35 0 0 0 26.313 8.6v1.775h-2.179a.692.692 0 0 0-.687.697c0 .386.308.697.687.697h2.18v10.797c-2.6-.296-4.708-2.243-5.29-4.78l.288.293a.68.68 0 0 0 .971 0 .704.704 0 0 0 0-.986l-1.555-1.578a.68.68 0 0 0-.971 0L18.2 17.092a.704.704 0 0 0 0 .985.68.68 0 0 0 .972 0"/><path d="M1.35 14.108c0-1.562.803-2.973 2-3.51l17.697-7.955A14.485 14.485 0 0 1 27 1.349c2.017 0 4.033.431 5.953 1.294l17.698 7.955c1.196.537 1.999 1.948 1.999 3.51v7.084c0 2.06-1.361 3.735-3.034 3.735H4.384c-1.673 0-3.034-1.676-3.034-3.735v-7.084zm43.757 28.106c-4.117 4.07-10.902 6.447-18.162 6.439-11.928-.064-21.63-6.614-21.86-14.67h43.834c-.039 2.956-1.352 5.8-3.812 8.231zm4.382-9.577H4.511v-6.363H49.49v6.363h-.001zM3.161 26.068v7.242c0 .336.25.602.572.653.211 8.804 10.523 15.969 23.204 16.036l.178.001c7.54 0 14.61-2.547 18.942-6.829 2.727-2.697 4.18-5.88 4.213-9.209a.664.664 0 0 0 .569-.652v-7.242C52.663 25.452 54 23.501 54 21.192v-7.084c0-2.115-1.097-3.975-2.795-4.738L33.507 1.415c-4.196-1.887-8.818-1.887-13.014 0L2.795 9.37C1.097 10.133 0 11.993 0 14.108v7.084c0 2.31 1.337 4.26 3.161 4.876z"/></g></svg>
